X:1
T:Bl Olles schottis
R:Schottis
Z:2007-09-05
O:Malung, Dalarna
M:2/4
L:1/8
K:Bm
|:B/2c/2d/2e/2 ff| fe/2d/2 B2|c/2d/2c/2A/2 cc| B/2c/2d/2c/2 B2:|
|:Af/2e/2 dA/2F/2| GG G/2B/2e/2d/2|cc c/2A/2f/2e/2| dd A2|
Af/2e/2 dA/2F/2| GG G/2B/2e/2d/2|cc c/2A/2f/2e/2| dd d2:|
